X:1
T:Title
%%score { ( 1 4 5 ) | ( 2 3 ) }
L:1/8
M:4/4
K:G
V:1 treble nm="Grand Piano"
V:4 treble 
V:5 treble 
V:2 bass 
V:3 bass 
V:1
 z4 z2[Q:1/4=100] D2 | G3 F A3 G | [B,B]6 E2 | A3 ^G B3 A |[M:3/4] [CEc]6 |[M:1/4] [Fcd]2 | %6
[M:4/4] [FBd]2 [FAd]2 [=F^Gd]2 [^FAd]2 | d3 B G2 [Fcd]2 | [FBd]2 [FAd]2 [Fce]2 [Fcd]2 | B6 B2 | %10
 B3 B c3 c |[M:9/8] ^c3 c d2- d g2 |[M:4/4] e2 B2 c2 [EA]2 | %13
[M:33/32] [Gd]/4-[Gd]/4-[Gd]/4-[Gd]/4-[Gd]/4-[Gd]/4-[Gd]/-<[Gd]/ z/4 z/4 z/4 z/4 z/4 z/4 z/4 z/4 z/4 z/4 z/4 z/4 z/4 z/4 z/4 z/4 z/4 z/4 z/4 z/4 z/4 z/ |] %14
V:2
 z4 z2 D,2 | G,3 F, A,3 G, | [G,,D,G,]6 E,2 | A,3 ^G, B,3 A, |[M:3/4] [A,,E,A,]6 | %5
[M:1/4] [D,A,C]2 |[M:4/4] [D,CD]2 [D,CD]2 [D,B,D]2 [D,CD]2 | G4 z4[K:bass] | %8
 [D,CD]2 [D,CD]2 [D,CD]2 [D,CD]2 | [G,B,DG]6 [^G,D=F]2 | [^G,D=F]3 [G,DF] [A,D^F]3 [A,DF] | %11
[M:9/8] [_B,EG]3 [B,EG] [=B,DG]2- [B,DG] [B,DG]2 |[M:4/4] [CEG]2 [^G,D=F]2[K:bass] [A,CE]2 [C,C]2 | %13
[M:33/32] B,/4-B,/4-B,/-<B,/ z/4 z/ D,/4-D,/4-D,/4-D,/4-D,/4-D,/4-D,/4-D,/4-D,/4-D,/-<D,/ z/4 z/4 z/4 z/4 z/4 z/4 z/4 z/4 z/4 z/ |] %14
V:3
 x8 | x8 | x8 | x8 |[M:3/4] x6 |[M:1/4] x2 |[M:4/4] x8 | [G,B,D]6[K:bass] [D,A,C]2 | x8 | x8 | x8 | %11
[M:9/8] x9 |[M:4/4] x4[K:bass] x4 | %13
[M:33/32] D,/4-D,/4-D,/-<D,/-[D,_B,]3/4 z/4 z/4 z/4 z/4 z/4 z/4 z/4 z/4 z/4 z/ G,,/4-G,,/4-G,,/4-G,,/4-G,,/4-G,,/4-G,,/4-G,,/4-G,,/4-G,,/-<G,,/ |] %14
V:4
 x8 | x8 | x8 | x8 |[M:3/4] x6 |[M:1/4] x2 |[M:4/4] x8 | x8 | x8 | x8 | x8 |[M:9/8] x9 | %12
[M:4/4] x8 | %13
[M:33/32] z/4 z/4 z/4 z/4 z/4 z/4 z/ [A,CF]/4-[A,CF]/4-[A,CF]/4-[A,CF]/4-[A,CF]/4-[A,CF]/4-[A,CF]/4-[A,CF]/4-[A,CF]/4-[A,CF]/4-[A,CF]/-<[A,CF]/ z/4 z/4 z/4 z/4 z/4 z/4 z/4 z/4 z/4 z/ |] %14
V:5
 x8 | x8 | x8 | x8 |[M:3/4] x6 |[M:1/4] x2 |[M:4/4] x8 | x8 | x8 | x8 | x8 |[M:9/8] x9 | %12
[M:4/4] x8 | %13
[M:33/32] z/4 z/4 z/4 z/4 z/4 z/4 z/4 z/4 z/4 z/4 z/4 z/4 z/4 z/4 z/4 z/4 z/4 z/4 z/ [G,B,G]/4-[G,B,G]/4-[G,B,G]/4-[G,B,G]/4-[G,B,G]/4-[G,B,G]/4-[G,B,G]/4-[G,B,G]/4-[G,B,G]/4-[G,B,G]/-<[G,B,G]/ |] %14

